startshape bigtree
 
rule bigtree { 
   
   tree { }
   bigtree {s 0.1}
   }


rule tree {
    CIRCLE {  } //unfortunatley I couldn't figure out how to get rid of the second circle
    tree {y 0.6  s 0.98 }
}
rule tree .1 { 
    tree { flip 90 } 
}
rule tree .1 { 
    tree { r 10 } 
    tree { r -30 s .6}
}
